X: 10551
Q: "Strathspey."
M: C|
L: 1/8
K: D
fg |\
adfa dafa | gceg cgef/g/ |
adfa dafa | gc a/g/f/e/ fddf/g/ |\
adfa daf>a | gceg cgef/g/ |\
a>fg>e f>de>c | A>c A/G/F/E/ FDD |]


